www/assets/icons/nights_stay.svg

<svg width="24" height="24" viewBox="0 0 24 24" xmlns="http://www.w3.org/2000/svg" fill='currentColor'><path d="M12.4199 12.07C10.0899 7.56 11.9199 3.59 12.9499 2C7.58995 2.19 3.29995 6.58 3.29995 11.99C3.29995 12.13 3.31995 12.27 3.31995 12.41C3.93995 12.14 4.60995 11.99 5.31995 11.99C6.97995 11.99 8.49995 12.82 9.41995 14.14C11.0899 14.62 12.3199 16.16 12.3199 17.99C12.3199 19.51 11.4499 20.82 10.1999 21.5C11.1799 21.82 12.2299 22 13.3099 22C16.8099 22 19.8899 20.2 21.6799 17.48C19.3199 17.71 14.6999 16.51 12.4199 12.07Z"/><path d="M8.31995 15.99H8.13995C7.71995 14.83 6.61995 13.99 5.31995 13.99C3.65995 13.99 2.31995 15.33 2.31995 16.99C2.31995 18.65 3.65995 19.99 5.31995 19.99H8.31995C9.41995 19.99 10.3199 19.09 10.3199 17.99C10.3199 16.89 9.41995 15.99 8.31995 15.99Z"/></svg>

<svg xmlns="http://www.w3.org/2000/svg" width="24" height="24" viewBox="0 0 24 24" fill='currentColor'><path d="M12.42 12.07c-2.33-4.51-.5-8.48.53-10.07-5.36.19-9.65 4.58-9.65 9.99 0 .14.02.28.02.42.62-.27 1.29-.42 2-.42 1.66 0 3.18.83 4.1 2.15a4.01 4.01 0 0 1 2.9 3.85c0 1.52-.87 2.83-2.12 3.51.98.32 2.03.5 3.11.5 3.5 0 6.58-1.8 8.37-4.52-2.36.23-6.98-.97-9.26-5.41"/><path d="M8.32 15.99h-.18c-.42-1.16-1.52-2-2.82-2-1.66 0-3 1.34-3 3s1.34 3 3 3h3c1.1 0 2-.9 2-2s-.9-2-2-2"/></svg>
